X:226
T:B226-  I would I were in my own country
S:(2nd/2)
Q:1/4=120
L:1/4
M:C|
K:Gdorian
Bddc/2B/2|cA^F2|BGgA|Bcd2|\
dffe/2d/2|c3/2B/2Ac|BG3/2G/2^F|G4||\
d3/2f/2e3/2g/2|^f3/2d/2=BG|A3/2c/2B3/2d/2|\
c3/2A/2^FD|d3/2f/2e3/2g/2|^f3/2a/2gd|\
c3/2G/2BA|.G4|]

